X: 27
T: Tam Lin
C: Davey Arthur
Z: leprecawn
S: https://thesession.org/tunes/248#setting49841
R: reel
M: 4/4
L: 1/8
K: Dmin
||:A,2DA, EA,DA,|B,2DB, FB,DB,|C2EC GCEC|FEDC A,DDC|
A,2DA, EA,DA,|B,2DB, FB,DB,|C2EC GCEC| FEDC A,DD2:||
|:dA~A2 FADA|dA~A2 FADA|cG~G2 EG~G2|cG~G2 cdec|
dA~A2 FADA|dA~A2 FADA,|~B,3A, B,CDE|FDEC A,DD2:||

